src/assets/cloud.svg

<svg width="366" height="183" viewBox="0 0 366 183" fill="none" xmlns="http://www.w3.org/2000/svg">
<g clip-path="url(#clip0_0_1294)">
<path d="M146.992 46.7673H156.555C160.128 40.2133 166.233 35.2438 173.561 33.1781C172.087 29.5986 168.567 27.0788 164.457 27.0788C163.429 27.0788 162.439 27.2371 161.509 27.5283C161.514 27.3788 161.521 27.2296 161.521 27.0788C161.521 19.7678 155.592 13.8398 148.281 13.8398C141.975 13.8398 136.703 18.2478 135.37 24.1496C134.559 23.8787 133.709 23.7408 132.853 23.7411C130.144 23.7411 127.753 25.0971 126.32 27.1668C125.502 26.9557 124.66 26.8489 123.815 26.8488C118.315 26.8488 113.856 31.3076 113.856 36.8078C113.856 42.3071 118.315 46.7668 123.815 46.7668H139.737" fill="#9FDEF7"/>
<path d="M201.384 40.7393C196.267 35.266 188.983 31.8447 180.899 31.8447C167.547 31.8447 156.382 41.181 153.558 53.6798C151.84 53.1057 150.041 52.8131 148.229 52.8133C142.492 52.8133 137.43 55.6858 134.394 60.0688C132.661 59.6214 130.879 59.3953 129.09 59.3958C117.442 59.3958 108 68.8379 108 80.4854C108 92.1325 117.442 101.576 129.09 101.576H152.342C152.391 94.407 158.215 88.6112 165.394 88.6112C166.719 88.61 168.037 88.8108 169.302 89.2067C169.296 89.0092 169.287 88.8112 169.287 88.6112C169.287 78.9144 177.148 71.0536 186.845 71.0536C195.205 71.0536 202.197 76.9004 203.965 84.7264C205.041 84.3668 206.168 84.1836 207.302 84.1839C210.894 84.1839 214.065 85.9824 215.966 88.7277C217.05 88.4472 218.166 88.3053 219.287 88.3057C224.094 88.3057 228.301 90.8755 230.61 94.715C233.959 91.0167 236 86.1114 236 80.7299C236 69.2159 226.667 59.8838 215.154 59.8838C213.037 59.882 210.933 60.2026 208.913 60.8346C208.923 60.5188 208.937 60.2023 208.937 59.8838C208.937 55.1758 207.777 50.7391 205.726 46.843" fill="#BEEAFC"/>
<path d="M130.361 59.4352C129.937 59.4093 129.513 59.3962 129.09 59.396C117.442 59.3957 108 68.838 108 80.4855C108 92.1325 117.442 101.576 129.09 101.576H152.342C152.354 99.4047 152.91 97.2711 153.958 95.37C142.461 86.5217 133.99 73.939 130.361 59.4352Z" fill="#AEE4FF"/>
<path d="M128.404 43.5065C128.404 36.666 129.456 30.072 131.403 23.8745C129.303 24.2623 127.492 25.4763 126.32 27.1673C125.502 26.9561 124.66 26.8493 123.815 26.8493C118.315 26.8493 113.857 31.308 113.857 36.8083C113.857 42.3075 118.316 46.7673 123.815 46.7673H128.485C128.431 45.6812 128.404 44.5939 128.404 43.5065Z" fill="#83D4ED"/>
<path d="M219.287 87.7482C218.14 87.7482 217.027 87.8952 215.966 88.1702C214.065 85.4246 210.894 83.6264 207.302 83.6264C206.135 83.6264 205.015 83.8186 203.966 84.1689C202.197 76.3426 195.206 70.4961 186.845 70.4961C177.148 70.4961 169.288 78.3569 169.288 88.0537C169.288 88.2537 169.297 88.4517 169.303 88.6492C168.038 88.2533 166.72 88.0525 165.394 88.0537C158.186 88.0537 152.341 93.8969 152.341 101.108C152.341 108.316 158.186 114.16 165.394 114.16H219.288C226.581 114.16 232.494 108.247 232.494 100.954C232.494 93.6604 226.581 87.7482 219.287 87.7482Z" fill="#E4F2F9"/>
<path d="M179.315 84.3812C179.315 79.6695 180.315 75.1917 182.111 71.146C174.715 73.2127 169.287 79.9967 169.287 88.0527C169.287 88.2527 169.296 88.4507 169.302 88.6482C168.037 88.2524 166.719 88.0516 165.394 88.0527C158.185 88.0527 152.341 93.896 152.341 101.107C152.341 108.315 158.185 114.159 165.394 114.159H198.563C187.215 109.046 179.315 97.6362 179.315 84.3812Z" fill="#D7EDF9"/>
</g>
<g clip-path="url(#clip1_0_1294)">
<path d="M319.41 115.48H324.416C326.286 112.049 329.482 109.448 333.317 108.367C332.546 106.493 330.703 105.174 328.551 105.174C328.014 105.174 327.496 105.257 327.009 105.409C327.011 105.331 327.015 105.253 327.015 105.174C327.015 101.347 323.911 98.2441 320.084 98.2441C316.784 98.2441 314.024 100.551 313.327 103.641C312.902 103.499 312.457 103.427 312.009 103.427C310.591 103.427 309.34 104.137 308.589 105.22C308.161 105.109 307.72 105.054 307.278 105.054C304.399 105.054 302.065 107.387 302.065 110.266C302.065 113.145 304.399 115.479 307.278 115.479H315.612" fill="#9FDEF7"/>
<path d="M347.881 112.324C345.202 109.459 341.389 107.668 337.158 107.668C330.169 107.668 324.325 112.555 322.847 119.098C321.948 118.797 321.006 118.644 320.057 118.644C317.054 118.644 314.405 120.148 312.815 122.442C311.909 122.208 310.976 122.089 310.039 122.09C303.942 122.09 299 127.032 299 133.129C299 139.225 303.942 144.168 310.039 144.168H322.21C322.236 140.416 325.284 137.382 329.042 137.382C329.736 137.382 330.426 137.487 331.088 137.694C331.085 137.59 331.08 137.487 331.08 137.382C331.08 132.306 335.195 128.192 340.27 128.192C344.647 128.192 348.306 131.252 349.232 135.349C349.795 135.16 350.385 135.065 350.978 135.065C352.859 135.065 354.518 136.006 355.513 137.443C356.081 137.296 356.665 137.222 357.252 137.222C359.768 137.222 361.97 138.567 363.179 140.577C364.932 138.641 366 136.074 366 133.257C366 127.23 361.115 122.345 355.088 122.345C353.98 122.344 352.879 122.512 351.822 122.843C351.827 122.678 351.834 122.512 351.834 122.345C351.834 119.881 351.227 117.558 350.153 115.519" fill="#BEEAFC"/>
<path d="M310.704 122.11C310.483 122.097 310.261 122.09 310.039 122.09C303.942 122.09 299 127.032 299 133.129C299 139.225 303.942 144.168 310.039 144.168H322.21C322.217 143.032 322.507 141.915 323.056 140.92C317.038 136.288 312.604 129.702 310.704 122.11Z" fill="#AEE4FF"/>
<path d="M309.68 113.773C309.68 110.192 310.23 106.741 311.25 103.497C310.15 103.7 309.202 104.335 308.589 105.22C308.161 105.11 307.72 105.054 307.278 105.054C304.399 105.054 302.065 107.388 302.065 110.267C302.065 113.145 304.399 115.48 307.278 115.48H309.722C309.694 114.911 309.68 114.342 309.68 113.773Z" fill="#83D4ED"/>
<path d="M357.252 136.93C356.651 136.93 356.069 137.007 355.514 137.151C354.518 135.714 352.859 134.773 350.979 134.773C350.368 134.773 349.781 134.873 349.232 135.057C348.306 130.96 344.647 127.9 340.27 127.9C335.195 127.9 331.08 132.015 331.08 137.09C331.08 137.195 331.085 137.299 331.088 137.402C330.426 137.195 329.736 137.09 329.042 137.09C325.269 137.09 322.21 140.149 322.21 143.923C322.21 147.697 325.269 150.755 329.042 150.755H357.252C361.07 150.755 364.165 147.66 364.165 143.843C364.165 140.025 361.07 136.93 357.252 136.93Z" fill="#E4F2F9"/>
<path d="M336.329 135.168C336.329 132.702 336.852 130.358 337.792 128.24C333.921 129.322 331.08 132.873 331.08 137.09C331.08 137.195 331.084 137.298 331.088 137.402C330.426 137.194 329.736 137.089 329.042 137.09C325.269 137.09 322.209 140.148 322.209 143.923C322.209 147.696 325.269 150.755 329.042 150.755H346.404C340.464 148.079 336.329 142.106 336.329 135.168Z" fill="#D7EDF9"/>
</g>
<g clip-path="url(#clip2_0_1294)">
<path d="M20.4098 140.48H25.4157C27.2857 137.049 30.4815 134.448 34.3173 133.367C33.5456 131.493 31.7028 130.174 29.5515 130.174C29.0137 130.174 28.4956 130.257 28.0087 130.409C28.0113 130.331 28.0147 130.253 28.0147 130.174C28.0147 126.347 24.9115 123.244 21.0844 123.244C17.7837 123.244 15.0244 125.551 14.3265 128.641C13.9017 128.499 13.4568 128.427 13.0089 128.427C11.5912 128.427 10.3396 129.137 9.58916 130.22C9.1609 130.109 8.72038 130.054 8.27808 130.054C5.39918 130.054 3.06543 132.387 3.06543 135.266C3.06543 138.145 5.39931 140.479 8.27808 140.479H16.6121" fill="#9FDEF7"/>
<path d="M48.8809 137.324C46.2024 134.459 42.3893 132.668 38.1581 132.668C31.1691 132.668 25.3252 137.555 23.847 144.098C22.9476 143.797 22.0056 143.644 21.0573 143.644C18.0545 143.644 15.4047 145.148 13.8154 147.442C12.9086 147.208 11.9757 147.089 11.0391 147.09C4.94232 147.09 0 152.032 0 158.129C0 164.225 4.94232 169.168 11.0391 169.168H23.2105C23.2361 165.416 26.2843 162.382 30.0422 162.382C30.7359 162.382 31.4258 162.487 32.0879 162.694C32.0849 162.59 32.0802 162.487 32.0802 162.382C32.0802 157.306 36.1947 153.192 41.2702 153.192C45.6465 153.192 49.3063 156.252 50.2319 160.349C50.7949 160.16 51.3847 160.065 51.9783 160.065C53.8585 160.065 55.5182 161.006 56.5133 162.443C57.0811 162.296 57.6652 162.222 58.2516 162.222C60.7682 162.222 62.97 163.567 64.1789 165.577C65.9319 163.641 66.9999 161.074 66.9999 158.257C66.9999 152.23 62.1146 147.345 56.0882 147.345C54.9804 147.344 53.8789 147.512 52.8216 147.843C52.827 147.678 52.8342 147.512 52.8342 147.345C52.8342 144.881 52.2268 142.558 51.1533 140.519" fill="#BEEAFC"/>
<path d="M11.7043 147.11C11.4828 147.097 11.261 147.09 11.039 147.09C4.9423 147.09 0 152.032 0 158.129C0 164.225 4.9423 169.168 11.039 169.168H23.2104C23.2166 168.032 23.5074 166.915 24.0563 165.92C18.0382 161.288 13.6043 154.702 11.7043 147.11Z" fill="#AEE4FF"/>
<path d="M10.6797 138.773C10.6797 135.192 11.2304 131.741 12.2499 128.497C11.1504 128.7 10.2025 129.335 9.58916 130.22C9.1609 130.11 8.72038 130.054 8.27808 130.054C5.39918 130.054 3.06543 132.388 3.06543 135.267C3.06543 138.145 5.39931 140.48 8.27808 140.48H10.7223C10.6942 139.911 10.68 139.342 10.6797 138.773Z" fill="#83D4ED"/>
<path d="M58.2519 161.93C57.6515 161.93 57.0688 162.007 56.5135 162.151C55.5185 160.714 53.8588 159.773 51.9786 159.773C51.3677 159.773 50.7814 159.873 50.2321 160.057C49.3064 155.96 45.6468 152.9 41.2705 152.9C36.1949 152.9 32.0804 157.015 32.0804 162.09C32.0804 162.195 32.085 162.299 32.0882 162.402C31.426 162.195 30.7362 162.09 30.0424 162.09C26.2691 162.09 23.21 165.149 23.21 168.923C23.21 172.697 26.2692 175.755 30.0424 175.755H58.2521C62.07 175.755 65.1651 172.66 65.1651 168.843C65.1648 165.025 62.0697 161.93 58.2519 161.93Z" fill="#E4F2F9"/>
<path d="M37.3287 160.168C37.3287 157.702 37.8521 155.358 38.7923 153.24C34.9209 154.322 32.0799 157.873 32.0799 162.09C32.0799 162.195 32.0845 162.298 32.0876 162.402C31.4255 162.194 30.7357 162.089 30.0419 162.09C26.2686 162.09 23.2095 165.148 23.2095 168.923C23.2095 172.696 26.2687 175.755 30.0419 175.755H47.4039C41.4641 173.079 37.3287 167.106 37.3287 160.168Z" fill="#D7EDF9"/>
</g>
<defs>
<clipPath id="clip0_0_1294">
<rect width="128" height="128" fill="white" transform="translate(108)"/>
</clipPath>
<clipPath id="clip1_0_1294">
<rect width="67" height="67" fill="white" transform="translate(299 91)"/>
</clipPath>
<clipPath id="clip2_0_1294">
<rect width="67" height="67" fill="white" transform="translate(0 116)"/>
</clipPath>
</defs>
</svg>

<svg width="366" height="183" fill="none" xmlns="http://www.w3.org/2000/svg"><g clip-path="url(#a)"><path d="M146.992 46.767h9.563c3.573-6.554 9.678-11.523 17.006-13.589a9.845 9.845 0 0 0-12.052-5.65c.005-.15.012-.298.012-.45 0-7.31-5.929-13.238-13.24-13.238-6.306 0-11.578 4.408-12.911 10.31a7.936 7.936 0 0 0-2.517-.409 7.93 7.93 0 0 0-6.533 3.426 10.031 10.031 0 0 0-2.505-.318c-5.5 0-9.959 4.459-9.959 9.959s4.459 9.959 9.959 9.959h15.922" fill="#9FDEF7"/><path d="M201.384 40.74c-5.117-5.474-12.401-8.895-20.485-8.895-13.352 0-24.517 9.336-27.341 21.835a16.806 16.806 0 0 0-5.329-.867c-5.737 0-10.799 2.873-13.835 7.256a21.194 21.194 0 0 0-5.304-.673c-11.648 0-21.09 9.442-21.09 21.09 0 11.646 9.442 21.09 21.09 21.09h23.252c.049-7.169 5.873-12.965 13.052-12.965 1.325-.001 2.643.2 3.908.596-.006-.198-.015-.396-.015-.596 0-9.697 7.861-17.557 17.558-17.557 8.36 0 15.352 5.846 17.12 13.672a10.52 10.52 0 0 1 3.337-.542c3.592 0 6.763 1.798 8.664 4.544 1.084-.28 2.2-.423 3.321-.422 4.807 0 9.014 2.57 11.323 6.409A20.766 20.766 0 0 0 236 80.73c0-11.514-9.333-20.846-20.846-20.846a20.84 20.84 0 0 0-6.241.95c.01-.315.024-.632.024-.95 0-4.708-1.16-9.145-3.211-13.041" fill="#BEEAFC"/><path d="M130.361 59.435a21.012 21.012 0 0 0-1.271-.039c-11.648 0-21.09 9.442-21.09 21.09 0 11.646 9.442 21.09 21.09 21.09h23.252a13.005 13.005 0 0 1 1.616-6.206c-11.497-8.848-19.968-21.431-23.597-35.935z" fill="#AEE4FF"/><path d="M128.404 43.507c0-6.841 1.052-13.435 2.999-19.632a7.949 7.949 0 0 0-5.083 3.292 10.022 10.022 0 0 0-2.505-.318c-5.5 0-9.958 4.459-9.958 9.96 0 5.498 4.459 9.958 9.958 9.958h4.67a65.666 65.666 0 0 1-.081-3.26z" fill="#83D4ED"/><path d="M219.287 87.748c-1.147 0-2.26.147-3.321.422a10.518 10.518 0 0 0-8.664-4.544c-1.167 0-2.287.193-3.336.543-1.769-7.826-8.76-13.673-17.121-13.673-9.697 0-17.557 7.86-17.557 17.558 0 .2.009.398.015.595a13.047 13.047 0 0 0-3.909-.595c-7.208 0-13.053 5.843-13.053 13.054 0 7.208 5.845 13.052 13.053 13.052h53.894c7.293 0 13.206-5.913 13.206-13.206 0-7.294-5.913-13.206-13.207-13.206z" fill="#E4F2F9"/><path d="M179.315 84.381c0-4.712 1-9.19 2.796-13.235-7.396 2.067-12.824 8.85-12.824 16.907 0 .2.009.398.015.595a13.052 13.052 0 0 0-3.908-.595c-7.209 0-13.053 5.843-13.053 13.054 0 7.208 5.844 13.052 13.053 13.052h33.169c-11.348-5.113-19.248-16.523-19.248-29.778z" fill="#D7EDF9"/></g><g clip-path="url(#b)"><path d="M319.41 115.48h5.006a14.704 14.704 0 0 1 8.901-7.113 5.152 5.152 0 0 0-6.308-2.958c.002-.078.006-.156.006-.235a6.931 6.931 0 0 0-13.688-1.533 4.158 4.158 0 0 0-4.738 1.579 5.212 5.212 0 1 0-1.311 10.259h8.334" fill="#9FDEF7"/><path d="M347.881 112.324a14.638 14.638 0 0 0-10.723-4.656c-6.989 0-12.833 4.887-14.311 11.43a8.795 8.795 0 0 0-10.032 3.344 11.056 11.056 0 0 0-2.776-.352c-6.097 0-11.039 4.942-11.039 11.039 0 6.096 4.942 11.039 11.039 11.039h12.171a6.833 6.833 0 0 1 8.878-6.474c-.003-.104-.008-.207-.008-.312a9.19 9.19 0 0 1 18.152-2.033 5.504 5.504 0 0 1 6.281 2.094 6.908 6.908 0 0 1 7.666 3.134 10.869 10.869 0 0 0 2.821-7.32c0-6.027-4.885-10.912-10.912-10.912a10.895 10.895 0 0 0-3.266.498c.005-.165.012-.331.012-.498 0-2.464-.607-4.787-1.681-6.826" fill="#BEEAFC"/><path d="M310.704 122.11a11.33 11.33 0 0 0-.665-.02c-6.097 0-11.039 4.942-11.039 11.039 0 6.096 4.942 11.039 11.039 11.039h12.171a6.81 6.81 0 0 1 .846-3.248c-6.018-4.632-10.452-11.218-12.352-18.81z" fill="#AEE4FF"/><path d="M309.68 113.773a34.2 34.2 0 0 1 1.57-10.276 4.158 4.158 0 0 0-2.661 1.723 5.213 5.213 0 1 0-1.311 10.26h2.444a34.725 34.725 0 0 1-.042-1.707z" fill="#83D4ED"/><path d="M357.252 136.93a6.91 6.91 0 0 0-1.738.221 5.507 5.507 0 0 0-6.282-2.094 9.19 9.19 0 0 0-18.152 2.033c0 .105.005.209.008.312a6.832 6.832 0 1 0-2.046 13.353h28.21a6.913 6.913 0 1 0 0-13.825z" fill="#E4F2F9"/><path d="M336.329 135.168c0-2.466.523-4.81 1.463-6.928-3.871 1.082-6.712 4.633-6.712 8.85 0 .105.004.208.008.312a6.833 6.833 0 1 0-2.046 13.353h17.362c-5.94-2.676-10.075-8.649-10.075-15.587z" fill="#D7EDF9"/></g><g clip-path="url(#c)"><path d="M20.41 140.48h5.006a14.703 14.703 0 0 1 8.901-7.113 5.154 5.154 0 0 0-6.308-2.958c.002-.078.006-.156.006-.235a6.93 6.93 0 0 0-13.689-1.533 4.155 4.155 0 0 0-4.737 1.579 5.212 5.212 0 1 0-1.311 10.259h8.334" fill="#9FDEF7"/><path d="M48.88 137.324a14.636 14.636 0 0 0-10.722-4.656c-6.989 0-12.833 4.887-14.311 11.43a8.794 8.794 0 0 0-10.032 3.344 11.065 11.065 0 0 0-2.776-.352C4.942 147.09 0 152.032 0 158.129c0 6.096 4.942 11.039 11.04 11.039h12.17a6.832 6.832 0 0 1 8.878-6.474c-.003-.104-.008-.207-.008-.312a9.19 9.19 0 0 1 18.152-2.033 5.506 5.506 0 0 1 6.281 2.094 6.908 6.908 0 0 1 7.666 3.134 10.869 10.869 0 0 0 2.82-7.32c0-6.027-4.884-10.912-10.91-10.912a10.9 10.9 0 0 0-3.267.498c.005-.165.012-.331.012-.498a14.61 14.61 0 0 0-1.68-6.826" fill="#BEEAFC"/><path d="M11.704 147.11c-.221-.013-.443-.02-.665-.02C4.942 147.09 0 152.032 0 158.129c0 6.096 4.942 11.039 11.039 11.039H23.21a6.802 6.802 0 0 1 .846-3.248c-6.018-4.632-10.452-11.218-12.352-18.81z" fill="#AEE4FF"/><path d="M10.68 138.773c0-3.581.55-7.032 1.57-10.276a4.16 4.16 0 0 0-2.66 1.723 5.213 5.213 0 1 0-1.311 10.26h2.443a34.976 34.976 0 0 1-.042-1.707z" fill="#83D4ED"/><path d="M58.252 161.93c-.6 0-1.183.077-1.739.221a5.505 5.505 0 0 0-6.28-2.094 9.19 9.19 0 0 0-18.152 2.033c0 .105.004.209.007.312a6.833 6.833 0 1 0-2.046 13.353h28.21a6.913 6.913 0 1 0 0-13.825z" fill="#E4F2F9"/><path d="M37.329 160.168c0-2.466.523-4.81 1.463-6.928-3.871 1.082-6.712 4.633-6.712 8.85 0 .105.005.208.008.312a6.832 6.832 0 0 0-8.878 6.521 6.832 6.832 0 0 0 6.832 6.832h17.362c-5.94-2.676-10.075-8.649-10.075-15.587z" fill="#D7EDF9"/></g><defs><clipPath id="a"><path fill="#fff" transform="translate(108)" d="M0 0h128v128H0z"/></clipPath><clipPath id="b"><path fill="#fff" transform="translate(299 91)" d="M0 0h67v67H0z"/></clipPath><clipPath id="c"><path fill="#fff" transform="translate(0 116)" d="M0 0h67v67H0z"/></clipPath></defs></svg>
